MonoPhotoLUT.cube
# A Monochrome LUT
# Created by Timo Heidutzek
# https://github.com/trzyglow
# This LUT is not to be sold commercially.
# If you were asked to pay for this LUT, you were scammed.
# Version 1.0
# Licensed under CC-BY-SA-4.0
TITLE MonoPhotoLUT
LUT_3D_SIZE 5
0.000000 0.000000 0.000000
0.054902 0.054902 0.054902
0.113725 0.113725 0.113725
0.180392 0.180392 0.180392
0.247059 0.247059 0.247059
0.078431 0.078431 0.078431
0.090196 0.090196 0.090196
0.149020 0.149020 0.149020
0.215686 0.215686 0.215686
0.282353 0.282353 0.282353
0.164706 0.164706 0.164706
0.176471 0.176471 0.176471
0.184314 0.184314 0.184314
0.250980 0.250980 0.250980
0.317647 0.317647 0.317647
0.254902 0.254902 0.254902
0.262745 0.262745 0.262745
0.274510 0.274510 0.274510
0.282353 0.282353 0.282353
0.352941 0.352941 0.352941
0.345098 0.345098 0.345098
0.356863 0.356863 0.356863
0.368627 0.368627 0.368627
0.380392 0.380392 0.380392
0.392157 0.392157 0.392157
0.047059 0.047059 0.047059
0.058824 0.058824 0.058824
0.117647 0.117647 0.117647
0.184314 0.184314 0.184314
0.250980 0.250980 0.250980
0.082353 0.082353 0.082353
0.243137 0.243137 0.243137
0.301961 0.301961 0.301961
0.368627 0.368627 0.368627
0.435294 0.435294 0.435294
0.168627 0.168627 0.168627
0.325490 0.325490 0.325490
0.337255 0.337255 0.337255
0.403922 0.403922 0.403922
0.470588 0.470588 0.470588
0.254902 0.254902 0.254902
0.419608 0.419608 0.419608
0.427451 0.427451 0.427451
0.439216 0.439216 0.439216
0.501961 0.501961 0.501961
0.349020 0.349020 0.349020
0.509804 0.509804 0.509804
0.517647 0.517647 0.517647
0.529412 0.529412 0.529412
0.537255 0.537255 0.537255
0.101961 0.101961 0.101961
0.113725 0.113725 0.113725
0.121569 0.121569 0.121569
0.188235 0.188235 0.188235
0.254902 0.254902 0.254902
0.137255 0.137255 0.137255
0.294118 0.294118 0.294118
0.305882 0.305882 0.305882
0.372549 0.372549 0.372549
0.439216 0.439216 0.439216
0.172549 0.172549 0.172549
0.329412 0.329412 0.329412
0.498039 0.498039 0.498039
0.556863 0.556863 0.556863
0.619608 0.619608 0.619608
0.258824 0.258824 0.258824
0.423529 0.423529 0.423529
0.580392 0.580392 0.580392
0.592157 0.592157 0.592157
0.654902 0.654902 0.654902
0.352941 0.352941 0.352941
0.509804 0.509804 0.509804
0.670588 0.670588 0.670588
0.678431 0.678431 0.678431
0.690196 0.690196 0.690196
0.156863 0.156863 0.156863
0.168627 0.168627 0.168627
0.180392 0.180392 0.180392
0.188235 0.188235 0.188235
0.258824 0.258824 0.258824
0.192157 0.192157 0.192157
0.352941 0.352941 0.352941
0.368627 0.368627 0.368627
0.376471 0.376471 0.376471
0.443137 0.443137 0.443137
0.227451 0.227451 0.227451
0.392157 0.392157 0.392157
0.549020 0.549020 0.549020
0.560784 0.560784 0.560784
0.623529 0.623529 0.623529
0.262745 0.262745 0.262745
0.427451 0.427451 0.427451
0.584314 0.584314 0.584314
0.749020 0.749020 0.749020
0.807843 0.807843 0.807843
0.356863 0.356863 0.356863
0.513725 0.513725 0.513725
0.674510 0.674510 0.674510
0.831373 0.831373 0.831373
0.843137 0.843137 0.843137
0.219608 0.219608 0.219608
0.227451 0.227451 0.227451
0.239216 0.239216 0.239216
0.250980 0.250980 0.250980
0.258824 0.258824 0.258824
0.254902 0.254902 0.254902
0.411765 0.411765 0.411765
0.423529 0.423529 0.423529
0.435294 0.435294 0.435294
0.443137 0.443137 0.443137
0.290196 0.290196 0.290196
0.447059 0.447059 0.447059
0.607843 0.607843 0.607843
0.619608 0.619608 0.619608
0.627451 0.627451 0.627451
0.325490 0.325490 0.325490
0.482353 0.482353 0.482353
0.643137 0.643137 0.643137
0.800000 0.800000 0.800000
0.811765 0.811765 0.811765
0.364706 0.364706 0.364706
0.517647 0.517647 0.517647
0.678431 0.678431 0.678431
0.835294 0.835294 0.835294
1.000000 1.000000 1.000000
