MonoPhotoLUT.cube
# A Monochrome LUT
# Created by Timo Heidutzek
# https://github.com/trzyglow
# This LUT is not to be sold commercially.
# If you were asked to pay for this LUT, you were scammed.
# Version 1.0
# Licensed under CC-BY-SA-4.0
TITLE MonoPhotoLUT
LUT_3D_SIZE 25
0.000000 0.000000 0.000000
0.003922 0.003922 0.003922
0.011765 0.011765 0.011765
0.023529 0.023529 0.023529
0.035294 0.035294 0.035294
0.043137 0.043137 0.043137
0.054902 0.054902 0.054902
0.066667 0.066667 0.066667
0.078431 0.078431 0.078431
0.090196 0.090196 0.090196
0.094118 0.094118 0.094118
0.105882 0.105882 0.105882
0.113725 0.113725 0.113725
0.125490 0.125490 0.125490
0.137255 0.137255 0.137255
0.149020 0.149020 0.149020
0.160784 0.160784 0.160784
0.172549 0.172549 0.172549
0.180392 0.180392 0.180392
0.192157 0.192157 0.192157
0.200000 0.200000 0.200000
0.211765 0.211765 0.211765
0.223529 0.223529 0.223529
0.231373 0.231373 0.231373
0.247059 0.247059 0.247059
0.007843 0.007843 0.007843
0.007843 0.007843 0.007843
0.019608 0.019608 0.019608
0.027451 0.027451 0.027451
0.043137 0.043137 0.043137
0.050980 0.050980 0.050980
0.058824 0.058824 0.058824
0.070588 0.070588 0.070588
0.082353 0.082353 0.082353
0.094118 0.094118 0.094118
0.098039 0.098039 0.098039
0.113725 0.113725 0.113725
0.121569 0.121569 0.121569
0.133333 0.133333 0.133333
0.145098 0.145098 0.145098
0.156863 0.156863 0.156863
0.164706 0.164706 0.164706
0.176471 0.176471 0.176471
0.184314 0.184314 0.184314
0.196078 0.196078 0.196078
0.207843 0.207843 0.207843
0.219608 0.219608 0.219608
0.231373 0.231373 0.231373
0.239216 0.239216 0.239216
0.250980 0.250980 0.250980
0.019608 0.019608 0.019608
0.023529 0.023529 0.023529
0.023529 0.023529 0.023529
0.031373 0.031373 0.031373
0.047059 0.047059 0.047059
0.054902 0.054902 0.054902
0.066667 0.066667 0.066667
0.078431 0.078431 0.078431
0.090196 0.090196 0.090196
0.094118 0.094118 0.094118
0.105882 0.105882 0.105882
0.117647 0.117647 0.117647
0.125490 0.125490 0.125490
0.137255 0.137255 0.137255
0.149020 0.149020 0.149020
0.160784 0.160784 0.160784
0.172549 0.172549 0.172549
0.180392 0.180392 0.180392
0.192157 0.192157 0.192157
0.200000 0.200000 0.200000
0.211765 0.211765 0.211765
0.223529 0.223529 0.223529
0.235294 0.235294 0.235294
0.243137 0.243137 0.243137
0.258824 0.258824 0.258824
0.035294 0.035294 0.035294
0.035294 0.035294 0.035294
0.035294 0.035294 0.035294
0.039216 0.039216 0.039216
0.054902 0.054902 0.054902
0.062745 0.062745 0.062745
0.070588 0.070588 0.070588
0.082353 0.082353 0.082353
0.094118 0.094118 0.094118
0.101961 0.101961 0.101961
0.109804 0.109804 0.109804
0.125490 0.125490 0.125490
0.133333 0.133333 0.133333
0.145098 0.145098 0.145098
0.156863 0.156863 0.156863
0.164706 0.164706 0.164706
0.176471 0.176471 0.176471
0.188235 0.188235 0.188235
0.196078 0.196078 0.196078
0.207843 0.207843 0.207843
0.219608 0.219608 0.219608
0.231373 0.231373 0.231373
0.243137 0.243137 0.243137
0.250980 0.250980 0.250980
0.262745 0.262745 0.262745
0.050980 0.050980 0.050980
0.054902 0.054902 0.054902
0.054902 0.054902 0.054902
0.058824 0.058824 0.058824
0.058824 0.058824 0.058824
0.066667 0.066667 0.066667
0.078431 0.078431 0.078431
0.090196 0.090196 0.090196
0.098039 0.098039 0.098039
0.105882 0.105882 0.105882
0.117647 0.117647 0.117647
0.129412 0.129412 0.129412
0.137255 0.137255 0.137255
0.149020 0.149020 0.149020
0.160784 0.160784 0.160784
0.172549 0.172549 0.172549
0.184314 0.184314 0.184314
0.192157 0.192157 0.192157
0.203922 0.203922 0.203922
0.211765 0.211765 0.211765
0.223529 0.223529 0.223529
0.235294 0.235294 0.235294
0.247059 0.247059 0.247059
0.254902 0.254902 0.254902
0.270588 0.270588 0.270588
0.062745 0.062745 0.062745
0.066667 0.066667 0.066667
0.066667 0.066667 0.066667
0.070588 0.070588 0.070588
0.070588 0.070588 0.070588
0.074510 0.074510 0.074510
0.082353 0.082353 0.082353
0.094118 0.094118 0.094118
0.101961 0.101961 0.101961
0.113725 0.113725 0.113725
0.121569 0.121569 0.121569
0.137255 0.137255 0.137255
0.145098 0.145098 0.145098
0.156863 0.156863 0.156863
0.168627 0.168627 0.168627
0.176471 0.176471 0.176471
0.188235 0.188235 0.188235
0.200000 0.200000 0.200000
0.207843 0.207843 0.207843
0.219608 0.219608 0.219608
0.231373 0.231373 0.231373
0.243137 0.243137 0.243137
0.254902 0.254902 0.254902
0.262745 0.262745 0.262745
0.274510 0.274510 0.274510
0.078431 0.078431 0.078431
0.082353 0.082353 0.082353
0.082353 0.082353 0.082353
0.086275 0.086275 0.086275
0.086275 0.086275 0.086275
0.090196 0.090196 0.090196
0.090196 0.090196 0.090196
0.098039 0.098039 0.098039
0.109804 0.109804 0.109804
0.121569 0.121569 0.121569
0.129412 0.129412 0.129412
0.141176 0.141176 0.141176
0.149020 0.149020 0.149020
0.160784 0.160784 0.160784
0.172549 0.172549 0.172549
0.184314 0.184314 0.184314
0.196078 0.196078 0.196078
0.207843 0.207843 0.207843
0.215686 0.215686 0.215686
0.227451 0.227451 0.227451
0.235294 0.235294 0.235294
0.247059 0.247059 0.247059
0.258824 0.258824 0.258824
0.266667 0.266667 0.266667
0.282353 0.282353 0.282353
0.094118 0.094118 0.094118
0.094118 0.094118 0.094118
0.094118 0.094118 0.094118
0.098039 0.098039 0.098039
0.098039 0.098039 0.098039
0.098039 0.098039 0.098039
0.101961 0.101961 0.101961
0.101961 0.101961 0.101961
0.113725 0.113725 0.113725
0.125490 0.125490 0.125490
0.133333 0.133333 0.133333
0.149020 0.149020 0.149020
0.156863 0.156863 0.156863
0.168627 0.168627 0.168627
0.180392 0.180392 0.180392
0.188235 0.188235 0.188235
0.200000 0.200000 0.200000
0.211765 0.211765 0.211765
0.219608 0.219608 0.219608
0.231373 0.231373 0.231373
0.243137 0.243137 0.243137
0.254902 0.254902 0.254902
0.266667 0.266667 0.266667
0.274510 0.274510 0.274510
0.286275 0.286275 0.286275
0.105882 0.105882 0.105882
0.109804 0.109804 0.109804
0.109804 0.109804 0.109804
0.113725 0.113725 0.113725
0.113725 0.113725 0.113725
0.113725 0.113725 0.113725
0.117647 0.117647 0.117647
0.117647 0.117647 0.117647
0.121569 0.121569 0.121569
0.129412 0.129412 0.129412
0.137255 0.137255 0.137255
0.152941 0.152941 0.152941
0.160784 0.160784 0.160784
0.172549 0.172549 0.172549
0.184314 0.184314 0.184314
0.196078 0.196078 0.196078
0.207843 0.207843 0.207843
0.219608 0.219608 0.219608
0.227451 0.227451 0.227451
0.239216 0.239216 0.239216
0.247059 0.247059 0.247059
0.258824 0.258824 0.258824
0.270588 0.270588 0.270588
0.278431 0.278431 0.278431
0.294118 0.294118 0.294118
0.121569 0.121569 0.121569
0.125490 0.125490 0.125490
0.125490 0.125490 0.125490
0.125490 0.125490 0.125490
0.129412 0.129412 0.129412
0.129412 0.129412 0.129412
0.133333 0.133333 0.133333
0.133333 0.133333 0.133333
0.137255 0.137255 0.137255
0.137255 0.137255 0.137255
0.145098 0.145098 0.145098
0.160784 0.160784 0.160784
0.168627 0.168627 0.168627
0.180392 0.180392 0.180392
0.188235 0.188235 0.188235
0.200000 0.200000 0.200000
0.211765 0.211765 0.211765
0.223529 0.223529 0.223529
0.231373 0.231373 0.231373
0.243137 0.243137 0.243137
0.254902 0.254902 0.254902
0.266667 0.266667 0.266667
0.274510 0.274510 0.274510
0.286275 0.286275 0.286275
0.298039 0.298039 0.298039
0.133333 0.133333 0.133333
0.137255 0.137255 0.137255
0.137255 0.137255 0.137255
0.137255 0.137255 0.137255
0.141176 0.141176 0.141176
0.141176 0.141176 0.141176
0.145098 0.145098 0.145098
0.145098 0.145098 0.145098
0.149020 0.149020 0.149020
0.149020 0.149020 0.149020
0.149020 0.149020 0.149020
0.164706 0.164706 0.164706
0.172549 0.172549 0.172549
0.184314 0.184314 0.184314
0.196078 0.196078 0.196078
0.207843 0.207843 0.207843
0.219608 0.219608 0.219608
0.227451 0.227451 0.227451
0.235294 0.235294 0.235294
0.247059 0.247059 0.247059
0.258824 0.258824 0.258824
0.270588 0.270588 0.270588
0.282353 0.282353 0.282353
0.290196 0.290196 0.290196
0.305882 0.305882 0.305882
0.152941 0.152941 0.152941
0.152941 0.152941 0.152941
0.156863 0.156863 0.156863
0.156863 0.156863 0.156863
0.160784 0.160784 0.160784
0.160784 0.160784 0.160784
0.160784 0.160784 0.160784
0.164706 0.164706 0.164706
0.164706 0.164706 0.164706
0.168627 0.168627 0.168627
0.168627 0.168627 0.168627
0.172549 0.172549 0.172549
0.180392 0.180392 0.180392
0.192157 0.192157 0.192157
0.200000 0.200000 0.200000
0.211765 0.211765 0.211765
0.223529 0.223529 0.223529
0.235294 0.235294 0.235294
0.243137 0.243137 0.243137
0.254902 0.254902 0.254902
0.266667 0.266667 0.266667
0.278431 0.278431 0.278431
0.286275 0.286275 0.286275
0.298039 0.298039 0.298039
0.309804 0.309804 0.309804
0.164706 0.164706 0.164706
0.164706 0.164706 0.164706
0.168627 0.168627 0.168627
0.168627 0.168627 0.168627
0.172549 0.172549 0.172549
0.172549 0.172549 0.172549
0.176471 0.176471 0.176471
0.176471 0.176471 0.176471
0.180392 0.180392 0.180392
0.180392 0.180392 0.180392
0.180392 0.180392 0.180392
0.184314 0.184314 0.184314
0.184314 0.184314 0.184314
0.196078 0.196078 0.196078
0.207843 0.207843 0.207843
0.219608 0.219608 0.219608
0.231373 0.231373 0.231373
0.243137 0.243137 0.243137
0.250980 0.250980 0.250980
0.258824 0.258824 0.258824
0.270588 0.270588 0.270588
0.282353 0.282353 0.282353
0.294118 0.294118 0.294118
0.301961 0.301961 0.301961
0.317647 0.317647 0.317647
0.180392 0.180392 0.180392
0.180392 0.180392 0.180392
0.184314 0.184314 0.184314
0.184314 0.184314 0.184314
0.188235 0.188235 0.188235
0.188235 0.188235 0.188235
0.188235 0.188235 0.188235
0.192157 0.192157 0.192157
0.192157 0.192157 0.192157
0.196078 0.196078 0.196078
0.196078 0.196078 0.196078
0.200000 0.200000 0.200000
0.200000 0.200000 0.200000
0.203922 0.203922 0.203922
0.211765 0.211765 0.211765
0.223529 0.223529 0.223529
0.235294 0.235294 0.235294
0.247059 0.247059 0.247059
0.254902 0.254902 0.254902
0.266667 0.266667 0.266667
0.278431 0.278431 0.278431
0.290196 0.290196 0.290196
0.298039 0.298039 0.298039
0.309804 0.309804 0.309804
0.321569 0.321569 0.321569
0.196078 0.196078 0.196078
0.196078 0.196078 0.196078
0.200000 0.200000 0.200000
0.200000 0.200000 0.200000
0.200000 0.200000 0.200000
0.203922 0.203922 0.203922
0.203922 0.203922 0.203922
0.207843 0.207843 0.207843
0.207843 0.207843 0.207843
0.211765 0.211765 0.211765
0.211765 0.211765 0.211765
0.215686 0.215686 0.215686
0.215686 0.215686 0.215686
0.219608 0.219608 0.219608
0.219608 0.219608 0.219608
0.231373 0.231373 0.231373
0.243137 0.243137 0.243137
0.254902 0.254902 0.254902
0.262745 0.262745 0.262745
0.270588 0.270588 0.270588
0.282353 0.282353 0.282353
0.294118 0.294118 0.294118
0.305882 0.305882 0.305882
0.313725 0.313725 0.313725
0.329412 0.329412 0.329412
0.211765 0.211765 0.211765
0.211765 0.211765 0.211765
0.211765 0.211765 0.211765
0.215686 0.215686 0.215686
0.215686 0.215686 0.215686
0.219608 0.219608 0.219608
0.219608 0.219608 0.219608
0.223529 0.223529 0.223529
0.223529 0.223529 0.223529
0.227451 0.227451 0.227451
0.227451 0.227451 0.227451
0.231373 0.231373 0.231373
0.231373 0.231373 0.231373
0.231373 0.231373 0.231373
0.235294 0.235294 0.235294
0.235294 0.235294 0.235294
0.247059 0.247059 0.247059
0.258824 0.258824 0.258824
0.266667 0.266667 0.266667
0.278431 0.278431 0.278431
0.290196 0.290196 0.290196
0.301961 0.301961 0.301961
0.309804 0.309804 0.309804
0.321569 0.321569 0.321569
0.333333 0.333333 0.333333
0.227451 0.227451 0.227451
0.227451 0.227451 0.227451
0.227451 0.227451 0.227451
0.231373 0.231373 0.231373
0.231373 0.231373 0.231373
0.235294 0.235294 0.235294
0.235294 0.235294 0.235294
0.239216 0.239216 0.239216
0.239216 0.239216 0.239216
0.243137 0.243137 0.243137
0.243137 0.243137 0.243137
0.243137 0.243137 0.243137
0.247059 0.247059 0.247059
0.247059 0.247059 0.247059
0.250980 0.250980 0.250980
0.250980 0.250980 0.250980
0.254902 0.254902 0.254902
0.262745 0.262745 0.262745
0.270588 0.270588 0.270588
0.282353 0.282353 0.282353
0.294118 0.294118 0.294118
0.305882 0.305882 0.305882
0.317647 0.317647 0.317647
0.325490 0.325490 0.325490
0.341176 0.341176 0.341176
0.239216 0.239216 0.239216
0.243137 0.243137 0.243137
0.243137 0.243137 0.243137
0.247059 0.247059 0.247059
0.247059 0.247059 0.247059
0.250980 0.250980 0.250980
0.250980 0.250980 0.250980
0.254902 0.254902 0.254902
0.254902 0.254902 0.254902
0.258824 0.258824 0.258824
0.258824 0.258824 0.258824
0.258824 0.258824 0.258824
0.262745 0.262745 0.262745
0.262745 0.262745 0.262745
0.266667 0.266667 0.266667
0.266667 0.266667 0.266667
0.270588 0.270588 0.270588
0.270588 0.270588 0.270588
0.278431 0.278431 0.278431
0.290196 0.290196 0.290196
0.301961 0.301961 0.301961
0.313725 0.313725 0.313725
0.321569 0.321569 0.321569
0.329412 0.329412 0.329412
0.345098 0.345098 0.345098
0.254902 0.254902 0.254902
0.254902 0.254902 0.254902
0.254902 0.254902 0.254902
0.258824 0.258824 0.258824
0.258824 0.258824 0.258824
0.262745 0.262745 0.262745
0.262745 0.262745 0.262745
0.266667 0.266667 0.266667
0.266667 0.266667 0.266667
0.266667 0.266667 0.266667
0.270588 0.270588 0.270588
0.270588 0.270588 0.270588
0.274510 0.274510 0.274510
0.274510 0.274510 0.274510
0.278431 0.278431 0.278431
0.278431 0.278431 0.278431
0.282353 0.282353 0.282353
0.282353 0.282353 0.282353
0.282353 0.282353 0.282353
0.294118 0.294118 0.294118
0.305882 0.305882 0.305882
0.317647 0.317647 0.317647
0.329412 0.329412 0.329412
0.337255 0.337255 0.337255
0.352941 0.352941 0.352941
0.266667 0.266667 0.266667
0.270588 0.270588 0.270588
0.270588 0.270588 0.270588
0.274510 0.274510 0.274510
0.274510 0.274510 0.274510
0.278431 0.278431 0.278431
0.278431 0.278431 0.278431
0.278431 0.278431 0.278431
0.282353 0.282353 0.282353
0.282353 0.282353 0.282353
0.286275 0.286275 0.286275
0.286275 0.286275 0.286275
0.290196 0.290196 0.290196
0.290196 0.290196 0.290196
0.294118 0.294118 0.294118
0.294118 0.294118 0.294118
0.298039 0.298039 0.298039
0.298039 0.298039 0.298039
0.298039 0.298039 0.298039
0.301961 0.301961 0.301961
0.313725 0.313725 0.313725
0.325490 0.325490 0.325490
0.333333 0.333333 0.333333
0.341176 0.341176 0.341176
0.356863 0.356863 0.356863
0.282353 0.282353 0.282353
0.286275 0.286275 0.286275
0.286275 0.286275 0.286275
0.290196 0.290196 0.290196
0.290196 0.290196 0.290196
0.290196 0.290196 0.290196
0.294118 0.294118 0.294118
0.294118 0.294118 0.294118
0.298039 0.298039 0.298039
0.298039 0.298039 0.298039
0.301961 0.301961 0.301961
0.301961 0.301961 0.301961
0.305882 0.305882 0.305882
0.305882 0.305882 0.305882
0.305882 0.305882 0.305882
0.309804 0.309804 0.309804
0.309804 0.309804 0.309804
0.313725 0.313725 0.313725
0.313725 0.313725 0.313725
0.317647 0.317647 0.317647
0.317647 0.317647 0.317647
0.329412 0.329412 0.329412
0.341176 0.341176 0.341176
0.349020 0.349020 0.349020
0.368627 0.368627 0.368627
0.298039 0.298039 0.298039
0.301961 0.301961 0.301961
0.301961 0.301961 0.301961
0.301961 0.301961 0.301961
0.305882 0.305882 0.305882
0.305882 0.305882 0.305882
0.309804 0.309804 0.309804
0.309804 0.309804 0.309804
0.313725 0.313725 0.313725
0.313725 0.313725 0.313725
0.317647 0.317647 0.317647
0.317647 0.317647 0.317647
0.321569 0.321569 0.321569
0.321569 0.321569 0.321569
0.321569 0.321569 0.321569
0.325490 0.325490 0.325490
0.325490 0.325490 0.325490
0.329412 0.329412 0.329412
0.329412 0.329412 0.329412
0.333333 0.333333 0.333333
0.333333 0.333333 0.333333
0.337255 0.337255 0.337255
0.345098 0.345098 0.345098
0.352941 0.352941 0.352941
0.372549 0.372549 0.372549
0.313725 0.313725 0.313725
0.317647 0.317647 0.317647
0.317647 0.317647 0.317647
0.317647 0.317647 0.317647
0.321569 0.321569 0.321569
0.321569 0.321569 0.321569
0.325490 0.325490 0.325490
0.325490 0.325490 0.325490
0.329412 0.329412 0.329412
0.329412 0.329412 0.329412
0.333333 0.333333 0.333333
0.333333 0.333333 0.333333
0.337255 0.337255 0.337255
0.337255 0.337255 0.337255
0.337255 0.337255 0.337255
0.341176 0.341176 0.341176
0.341176 0.341176 0.341176
0.345098 0.345098 0.345098
0.345098 0.345098 0.345098
0.349020 0.349020 0.349020
0.349020 0.349020 0.349020
0.352941 0.352941 0.352941
0.352941 0.352941 0.352941
0.364706 0.364706 0.364706
0.380392 0.380392 0.380392
0.325490 0.325490 0.325490
0.329412 0.329412 0.329412
0.329412 0.329412 0.329412
0.329412 0.329412 0.329412
0.333333 0.333333 0.333333
0.333333 0.333333 0.333333
0.337255 0.337255 0.337255
0.337255 0.337255 0.337255
0.341176 0.341176 0.341176
0.341176 0.341176 0.341176
0.345098 0.345098 0.345098
0.345098 0.345098 0.345098
0.349020 0.349020 0.349020
0.349020 0.349020 0.349020
0.349020 0.349020 0.349020
0.352941 0.352941 0.352941
0.352941 0.352941 0.352941
0.356863 0.356863 0.356863
0.356863 0.356863 0.356863
0.364706 0.364706 0.364706
0.364706 0.364706 0.364706
0.364706 0.364706 0.364706
0.368627 0.368627 0.368627
0.368627 0.368627 0.368627
0.384314 0.384314 0.384314
0.345098 0.345098 0.345098
0.345098 0.345098 0.345098
0.349020 0.349020 0.349020
0.349020 0.349020 0.349020
0.352941 0.352941 0.352941
0.352941 0.352941 0.352941
0.356863 0.356863 0.356863
0.356863 0.356863 0.356863
0.356863 0.356863 0.356863
0.364706 0.364706 0.364706
0.364706 0.364706 0.364706
0.368627 0.368627 0.368627
0.368627 0.368627 0.368627
0.372549 0.372549 0.372549
0.372549 0.372549 0.372549
0.376471 0.376471 0.376471
0.376471 0.376471 0.376471
0.380392 0.380392 0.380392
0.380392 0.380392 0.380392
0.380392 0.380392 0.380392
0.384314 0.384314 0.384314
0.384314 0.384314 0.384314
0.388235 0.388235 0.388235
0.388235 0.388235 0.388235
0.392157 0.392157 0.392157
0.000000 0.000000 0.000000
0.003922 0.003922 0.003922
0.015686 0.015686 0.015686
0.023529 0.023529 0.023529
0.035294 0.035294 0.035294
0.043137 0.043137 0.043137
0.054902 0.054902 0.054902
0.066667 0.066667 0.066667
0.078431 0.078431 0.078431
0.090196 0.090196 0.090196
0.094118 0.094118 0.094118
0.109804 0.109804 0.109804
0.117647 0.117647 0.117647
0.125490 0.125490 0.125490
0.137255 0.137255 0.137255
0.149020 0.149020 0.149020
0.160784 0.160784 0.160784
0.172549 0.172549 0.172549
0.180392 0.180392 0.180392
0.192157 0.192157 0.192157
0.203922 0.203922 0.203922
0.211765 0.211765 0.211765
0.223529 0.223529 0.223529
0.231373 0.231373 0.231373
0.247059 0.247059 0.247059
0.007843 0.007843 0.007843
0.039216 0.039216 0.039216
0.047059 0.047059 0.047059
0.054902 0.054902 0.054902
0.066667 0.066667 0.066667
0.078431 0.078431 0.078431
0.086275 0.086275 0.086275
0.094118 0.094118 0.094118
0.105882 0.105882 0.105882
0.117647 0.117647 0.117647
0.125490 0.125490 0.125490
0.137255 0.137255 0.137255
0.149020 0.149020 0.149020
0.156863 0.156863 0.156863
0.168627 0.168627 0.168627
0.176471 0.176471 0.176471
0.192157 0.192157 0.192157
0.203922 0.203922 0.203922
0.211765 0.211765 0.211765
0.223529 0.223529 0.223529
0.235294 0.235294 0.235294
0.243137 0.243137 0.243137
0.254902 0.254902 0.254902
0.266667 0.266667 0.266667
0.274510 0.274510 0.274510
0.023529 0.023529 0.023529
0.047059 0.047059 0.047059
0.050980 0.050980 0.050980
0.062745 0.062745 0.062745
0.070588 0.070588 0.070588
0.082353 0.082353 0.082353
0.090196 0.090196 0.090196
0.098039 0.098039 0.098039
0.109804 0.109804 0.109804
0.121569 0.121569 0.121569
0.129412 0.129412 0.129412
0.141176 0.141176 0.141176
0.156863 0.156863 0.156863
0.164706 0.164706 0.164706
0.176471 0.176471 0.176471
0.184314 0.184314 0.184314
0.196078 0.196078 0.196078
0.207843 0.207843 0.207843
0.215686 0.215686 0.215686
0.227451 0.227451 0.227451
0.239216 0.239216 0.239216
0.250980 0.250980 0.250980
0.262745 0.262745 0.262745
0.274510 0.274510 0.274510
0.282353 0.282353 0.282353
0.035294 0.035294 0.035294
0.062745 0.062745 0.062745
0.066667 0.066667 0.066667
0.066667 0.066667 0.066667
0.074510 0.074510 0.074510
0.090196 0.090196 0.090196
0.094118 0.094118 0.094118
0.105882 0.105882 0.105882
0.117647 0.117647 0.117647
0.129412 0.129412 0.129412
0.137255 0.137255 0.137255
0.145098 0.145098 0.145098
0.160784 0.160784 0.160784
0.168627 0.168627 0.168627
0.180392 0.180392 0.180392
0.188235 0.188235 0.188235
0.203922 0.203922 0.203922
0.215686 0.215686 0.215686
0.223529 0.223529 0.223529
0.235294 0.235294 0.235294
0.243137 0.243137 0.243137
0.254902 0.254902 0.254902
0.266667 0.266667 0.266667
0.278431 0.278431 0.278431
0.286275 0.286275 0.286275
0.050980 0.050980 0.050980
0.074510 0.074510 0.074510
0.078431 0.078431 0.078431
0.078431 0.078431 0.078431
0.082353 0.082353 0.082353
0.094118 0.094118 0.094118
0.098039 0.098039 0.098039
0.109804 0.109804 0.109804
0.121569 0.121569 0.121569
0.133333 0.133333 0.133333
0.141176 0.141176 0.141176
0.152941 0.152941 0.152941
0.168627 0.168627 0.168627
0.176471 0.176471 0.176471
0.188235 0.188235 0.188235
0.196078 0.196078 0.196078
0.207843 0.207843 0.207843
0.219608 0.219608 0.219608
0.227451 0.227451 0.227451
0.239216 0.239216 0.239216
0.250980 0.250980 0.250980
0.262745 0.262745 0.262745
0.274510 0.274510 0.274510
0.282353 0.282353 0.282353
0.290196 0.290196 0.290196
0.066667 0.066667 0.066667
0.094118 0.094118 0.094118
0.094118 0.094118 0.094118
0.094118 0.094118 0.094118
0.098039 0.098039 0.098039
0.098039 0.098039 0.098039
0.105882 0.105882 0.105882
0.117647 0.117647 0.117647
0.129412 0.129412 0.129412
0.141176 0.141176 0.141176
0.149020 0.149020 0.149020
0.160784 0.160784 0.160784
0.172549 0.172549 0.172549
0.180392 0.180392 0.180392
0.192157 0.192157 0.192157
0.200000 0.200000 0.200000
0.215686 0.215686 0.215686
0.227451 0.227451 0.227451
0.235294 0.235294 0.235294
0.247059 0.247059 0.247059
0.254902 0.254902 0.254902
0.266667 0.266667 0.266667
0.278431 0.278431 0.278431
0.290196 0.290196 0.290196
0.298039 0.298039 0.298039
0.082353 0.082353 0.082353
0.101961 0.101961 0.101961
0.105882 0.105882 0.105882
0.105882 0.105882 0.105882
0.109804 0.109804 0.109804
0.109804 0.109804 0.109804
0.113725 0.113725 0.113725
0.121569 0.121569 0.121569
0.133333 0.133333 0.133333
0.145098 0.145098 0.145098
0.152941 0.152941 0.152941
0.164706 0.164706 0.164706
0.180392 0.180392 0.180392
0.188235 0.188235 0.188235
0.200000 0.200000 0.200000
0.207843 0.207843 0.207843
0.219608 0.219608 0.219608
0.231373 0.231373 0.231373
0.239216 0.239216 0.239216
0.250980 0.250980 0.250980
0.262745 0.262745 0.262745
0.274510 0.274510 0.274510
0.286275 0.286275 0.286275
0.294118 0.294118 0.294118
0.305882 0.305882 0.305882
0.094118 0.094118 0.094118
0.117647 0.117647 0.117647
0.121569 0.121569 0.121569
0.121569 0.121569 0.121569
0.125490 0.125490 0.125490
0.125490 0.125490 0.125490
0.125490 0.125490 0.125490
0.129412 0.129412 0.129412
0.141176 0.141176 0.141176
0.152941 0.152941 0.152941
0.160784 0.160784 0.160784
0.172549 0.172549 0.172549
0.184314 0.184314 0.184314
0.192157 0.192157 0.192157
0.203922 0.203922 0.203922
0.211765 0.211765 0.211765
0.227451 0.227451 0.227451
0.239216 0.239216 0.239216
0.247059 0.247059 0.247059
0.258824 0.258824 0.258824
0.266667 0.266667 0.266667
0.278431 0.278431 0.278431
0.290196 0.290196 0.290196
0.301961 0.301961 0.301961
0.309804 0.309804 0.309804
0.105882 0.105882 0.105882
0.133333 0.133333 0.133333
0.137255 0.137255 0.137255
0.137255 0.137255 0.137255
0.137255 0.137255 0.137255
0.141176 0.141176 0.141176
0.141176 0.141176 0.141176
0.145098 0.145098 0.145098
0.145098 0.145098 0.145098
0.156863 0.156863 0.156863
0.164706 0.164706 0.164706
0.176471 0.176471 0.176471
0.192157 0.192157 0.192157
0.200000 0.200000 0.200000
0.211765 0.211765 0.211765
0.219608 0.219608 0.219608
0.231373 0.231373 0.231373
0.243137 0.243137 0.243137
0.250980 0.250980 0.250980
0.262745 0.262745 0.262745
0.274510 0.274510 0.274510
0.286275 0.286275 0.286275
0.298039 0.298039 0.298039
0.305882 0.305882 0.305882
0.317647 0.317647 0.317647
0.121569 0.121569 0.121569
0.149020 0.149020 0.149020
0.152941 0.152941 0.152941
0.152941 0.152941 0.152941
0.152941 0.152941 0.152941
0.156863 0.156863 0.156863
0.156863 0.156863 0.156863
0.160784 0.160784 0.160784
0.160784 0.160784 0.160784
0.164706 0.164706 0.164706
0.172549 0.172549 0.172549
0.180392 0.180392 0.180392
0.196078 0.196078 0.196078
0.203922 0.203922 0.203922
0.215686 0.215686 0.215686
0.223529 0.223529 0.223529
0.239216 0.239216 0.239216
0.250980 0.250980 0.250980
0.258824 0.258824 0.258824
0.270588 0.270588 0.270588
0.278431 0.278431 0.278431
0.290196 0.290196 0.290196
0.301961 0.301961 0.301961
0.313725 0.313725 0.313725
0.321569 0.321569 0.321569
0.133333 0.133333 0.133333
0.160784 0.160784 0.160784
0.164706 0.164706 0.164706
0.164706 0.164706 0.164706
