MonoPhotoLUT.cube
# A Monochrome LUT
# Created by Timo Heidutzek
# https://github.com/trzyglow
# This LUT is not to be sold commercially.
# If you were asked to pay for this LUT, you were scammed.
# Version 1.0
# Licensed under CC-BY-SA-4.0
TITLE MonoPhotoLUT
LUT_3D_SIZE 9
0.000000 0.000000 0.000000
0.023529 0.023529 0.023529
0.054902 0.054902 0.054902
0.090196 0.090196 0.090196
0.113725 0.113725 0.113725
0.149020 0.149020 0.149020
0.180392 0.180392 0.180392
0.211765 0.211765 0.211765
0.247059 0.247059 0.247059
0.035294 0.035294 0.035294
0.039216 0.039216 0.039216
0.070588 0.070588 0.070588
0.101961 0.101961 0.101961
0.133333 0.133333 0.133333
0.164706 0.164706 0.164706
0.196078 0.196078 0.196078
0.231373 0.231373 0.231373
0.262745 0.262745 0.262745
0.078431 0.078431 0.078431
0.086275 0.086275 0.086275
0.090196 0.090196 0.090196
0.121569 0.121569 0.121569
0.149020 0.149020 0.149020
0.184314 0.184314 0.184314
0.215686 0.215686 0.215686
0.247059 0.247059 0.247059
0.282353 0.282353 0.282353
0.121569 0.121569 0.121569
0.125490 0.125490 0.125490
0.133333 0.133333 0.133333
0.137255 0.137255 0.137255
0.168627 0.168627 0.168627
0.200000 0.200000 0.200000
0.231373 0.231373 0.231373
0.266667 0.266667 0.266667
0.298039 0.298039 0.298039
0.164706 0.164706 0.164706
0.168627 0.168627 0.168627
0.176471 0.176471 0.176471
0.180392 0.180392 0.180392
0.184314 0.184314 0.184314
0.219608 0.219608 0.219608
0.250980 0.250980 0.250980
0.282353 0.282353 0.282353
0.317647 0.317647 0.317647
0.211765 0.211765 0.211765
0.215686 0.215686 0.215686
0.219608 0.219608 0.219608
0.227451 0.227451 0.227451
0.231373 0.231373 0.231373
0.235294 0.235294 0.235294
0.266667 0.266667 0.266667
0.301961 0.301961 0.301961
0.333333 0.333333 0.333333
0.254902 0.254902 0.254902
0.258824 0.258824 0.258824
0.262745 0.262745 0.262745
0.266667 0.266667 0.266667
0.274510 0.274510 0.274510
0.278431 0.278431 0.278431
0.282353 0.282353 0.282353
0.317647 0.317647 0.317647
0.352941 0.352941 0.352941
0.298039 0.298039 0.298039
0.301961 0.301961 0.301961
0.309804 0.309804 0.309804
0.313725 0.313725 0.313725
0.321569 0.321569 0.321569
0.325490 0.325490 0.325490
0.329412 0.329412 0.329412
0.337255 0.337255 0.337255
0.372549 0.372549 0.372549
0.345098 0.345098 0.345098
0.349020 0.349020 0.349020
0.356863 0.356863 0.356863
0.364706 0.364706 0.364706
0.368627 0.368627 0.368627
0.376471 0.376471 0.376471
0.380392 0.380392 0.380392
0.384314 0.384314 0.384314
0.392157 0.392157 0.392157
0.019608 0.019608 0.019608
0.023529 0.023529 0.023529
0.058824 0.058824 0.058824
0.090196 0.090196 0.090196
0.117647 0.117647 0.117647
0.149020 0.149020 0.149020
0.180392 0.180392 0.180392
0.215686 0.215686 0.215686
0.247059 0.247059 0.247059
0.035294 0.035294 0.035294
0.117647 0.117647 0.117647
0.145098 0.145098 0.145098
0.176471 0.176471 0.176471
0.211765 0.211765 0.211765
0.239216 0.239216 0.239216
0.274510 0.274510 0.274510
0.305882 0.305882 0.305882
0.337255 0.337255 0.337255
0.082353 0.082353 0.082353
0.156863 0.156863 0.156863
0.160784 0.160784 0.160784
0.192157 0.192157 0.192157
0.227451 0.227451 0.227451
0.258824 0.258824 0.258824
0.290196 0.290196 0.290196
0.321569 0.321569 0.321569
0.356863 0.356863 0.356863
0.125490 0.125490 0.125490
0.200000 0.200000 0.200000
0.207843 0.207843 0.207843
0.211765 0.211765 0.211765
0.247059 0.247059 0.247059
0.274510 0.274510 0.274510
0.309804 0.309804 0.309804
0.341176 0.341176 0.341176
0.376471 0.376471 0.376471
0.164706 0.164706 0.164706
0.247059 0.247059 0.247059
0.250980 0.250980 0.250980
0.258824 0.258824 0.258824
0.262745 0.262745 0.262745
0.294118 0.294118 0.294118
0.325490 0.325490 0.325490
0.356863 0.356863 0.356863
0.396078 0.396078 0.396078
0.211765 0.211765 0.211765
0.290196 0.290196 0.290196
0.294118 0.294118 0.294118
0.298039 0.298039 0.298039
0.305882 0.305882 0.305882
0.309804 0.309804 0.309804
0.345098 0.345098 0.345098
0.376471 0.376471 0.376471
0.411765 0.411765 0.411765
0.254902 0.254902 0.254902
0.337255 0.337255 0.337255
0.341176 0.341176 0.341176
0.345098 0.345098 0.345098
0.352941 0.352941 0.352941
0.356863 0.356863 0.356863
0.364706 0.364706 0.364706
0.396078 0.396078 0.396078
0.431373 0.431373 0.431373
0.301961 0.301961 0.301961
0.384314 0.384314 0.384314
0.388235 0.388235 0.388235
0.392157 0.392157 0.392157
0.396078 0.396078 0.396078
0.403922 0.403922 0.403922
0.407843 0.407843 0.407843
0.411765 0.411765 0.411765
0.447059 0.447059 0.447059
0.345098 0.345098 0.345098
0.427451 0.427451 0.427451
0.431373 0.431373 0.431373
0.439216 0.439216 0.439216
0.443137 0.443137 0.443137
0.447059 0.447059 0.447059
0.454902 0.454902 0.454902
0.458824 0.458824 0.458824
0.466667 0.466667 0.466667
0.047059 0.047059 0.047059
0.054902 0.054902 0.054902
0.058824 0.058824 0.058824
0.094118 0.094118 0.094118
0.117647 0.117647 0.117647
0.152941 0.152941 0.152941
0.184314 0.184314 0.184314
0.215686 0.215686 0.215686
0.250980 0.250980 0.250980
0.066667 0.066667 0.066667
0.141176 0.141176 0.141176
0.145098 0.145098 0.145098
0.180392 0.180392 0.180392
0.211765 0.211765 0.211765
0.243137 0.243137 0.243137
0.274510 0.274510 0.274510
0.305882 0.305882 0.305882
0.341176 0.341176 0.341176
0.082353 0.082353 0.082353
0.156863 0.156863 0.156863
0.243137 0.243137 0.243137
0.270588 0.270588 0.270588
0.301961 0.301961 0.301961
0.333333 0.333333 0.333333
0.368627 0.368627 0.368627
0.403922 0.403922 0.403922
0.435294 0.435294 0.435294
0.125490 0.125490 0.125490
0.203922 0.203922 0.203922
0.282353 0.282353 0.282353
0.286275 0.286275 0.286275
0.317647 0.317647 0.317647
0.349020 0.349020 0.349020
0.388235 0.388235 0.388235
0.419608 0.419608 0.419608
0.450980 0.450980 0.450980
0.168627 0.168627 0.168627
0.250980 0.250980 0.250980
0.325490 0.325490 0.325490
0.333333 0.333333 0.333333
0.337255 0.337255 0.337255
0.372549 0.372549 0.372549
0.403922 0.403922 0.403922
0.439216 0.439216 0.439216
0.470588 0.470588 0.470588
0.211765 0.211765 0.211765
0.290196 0.290196 0.290196
0.372549 0.372549 0.372549
0.380392 0.380392 0.380392
0.384314 0.384314 0.384314
0.388235 0.388235 0.388235
0.423529 0.423529 0.423529
0.454902 0.454902 0.454902
0.486275 0.486275 0.486275
0.254902 0.254902 0.254902
0.337255 0.337255 0.337255
0.419608 0.419608 0.419608
0.423529 0.423529 0.423529
0.427451 0.427451 0.427451
0.435294 0.435294 0.435294
0.439216 0.439216 0.439216
0.474510 0.474510 0.474510
0.501961 0.501961 0.501961
0.301961 0.301961 0.301961
0.384314 0.384314 0.384314
0.466667 0.466667 0.466667
0.470588 0.470588 0.470588
0.474510 0.474510 0.474510
0.482353 0.482353 0.482353
0.486275 0.486275 0.486275
0.490196 0.490196 0.490196
0.521569 0.521569 0.521569
0.349020 0.349020 0.349020
0.431373 0.431373 0.431373
0.509804 0.509804 0.509804
0.513725 0.513725 0.513725
0.517647 0.517647 0.517647
0.521569 0.521569 0.521569
0.529412 0.529412 0.529412
0.533333 0.533333 0.533333
0.537255 0.537255 0.537255
0.078431 0.078431 0.078431
0.082353 0.082353 0.082353
0.090196 0.090196 0.090196
0.094118 0.094118 0.094118
0.121569 0.121569 0.121569
0.152941 0.152941 0.152941
0.184314 0.184314 0.184314
0.219608 0.219608 0.219608
0.250980 0.250980 0.250980
0.094118 0.094118 0.094118
0.168627 0.168627 0.168627
0.176471 0.176471 0.176471
0.180392 0.180392 0.180392
0.215686 0.215686 0.215686
0.243137 0.243137 0.243137
0.278431 0.278431 0.278431
0.309804 0.309804 0.309804
0.341176 0.341176 0.341176
0.109804 0.109804 0.109804
0.188235 0.188235 0.188235
0.266667 0.266667 0.266667
0.270588 0.270588 0.270588
0.305882 0.305882 0.305882
0.333333 0.333333 0.333333
0.372549 0.372549 0.372549
0.403922 0.403922 0.403922
0.435294 0.435294 0.435294
0.129412 0.129412 0.129412
0.203922 0.203922 0.203922
0.282353 0.282353 0.282353
0.372549 0.372549 0.372549
0.400000 0.400000 0.400000
0.431373 0.431373 0.431373
0.462745 0.462745 0.462745
0.494118 0.494118 0.494118
0.529412 0.529412 0.529412
0.168627 0.168627 0.168627
0.250980 0.250980 0.250980
0.329412 0.329412 0.329412
0.411765 0.411765 0.411765
0.415686 0.415686 0.415686
0.447059 0.447059 0.447059
0.478431 0.478431 0.478431
0.513725 0.513725 0.513725
0.545098 0.545098 0.545098
0.215686 0.215686 0.215686
0.294118 0.294118 0.294118
0.376471 0.376471 0.376471
0.454902 0.454902 0.454902
0.462745 0.462745 0.462745
0.466667 0.466667 0.466667
0.498039 0.498039 0.498039
0.529412 0.529412 0.529412
0.564706 0.564706 0.564706
0.258824 0.258824 0.258824
0.337255 0.337255 0.337255
0.419608 0.419608 0.419608
0.498039 0.498039 0.498039
0.505882 0.505882 0.505882
0.509804 0.509804 0.509804
0.513725 0.513725 0.513725
0.549020 0.549020 0.549020
0.580392 0.580392 0.580392
0.301961 0.301961 0.301961
0.384314 0.384314 0.384314
0.466667 0.466667 0.466667
0.545098 0.545098 0.545098
0.549020 0.549020 0.549020
0.552941 0.552941 0.552941
0.560784 0.560784 0.560784
0.564706 0.564706 0.564706
0.600000 0.600000 0.600000
0.349020 0.349020 0.349020
0.431373 0.431373 0.431373
0.509804 0.509804 0.509804
0.592157 0.592157 0.592157
0.596078 0.596078 0.596078
0.600000 0.600000 0.600000
0.607843 0.607843 0.607843
0.611765 0.611765 0.611765
0.615686 0.615686 0.615686
0.101961 0.101961 0.101961
0.105882 0.105882 0.105882
0.113725 0.113725 0.113725
0.117647 0.117647 0.117647
0.121569 0.121569 0.121569
0.156863 0.156863 0.156863
0.188235 0.188235 0.188235
0.219608 0.219608 0.219608
0.254902 0.254902 0.254902
0.117647 0.117647 0.117647
0.200000 0.200000 0.200000
0.203922 0.203922 0.203922
0.211765 0.211765 0.211765
0.215686 0.215686 0.215686
0.247059 0.247059 0.247059
0.278431 0.278431 0.278431
0.309804 0.309804 0.309804
0.345098 0.345098 0.345098
0.137255 0.137255 0.137255
0.215686 0.215686 0.215686
0.294118 0.294118 0.294118
0.301961 0.301961 0.301961
0.305882 0.305882 0.305882
0.337255 0.337255 0.337255
0.372549 0.372549 0.372549
0.407843 0.407843 0.407843
0.439216 0.439216 0.439216
0.152941 0.152941 0.152941
0.235294 0.235294 0.235294
0.313725 0.313725 0.313725
0.396078 0.396078 0.396078
0.400000 0.400000 0.400000
0.435294 0.435294 0.435294
0.462745 0.462745 0.462745
0.498039 0.498039 0.498039
0.529412 0.529412 0.529412
0.172549 0.172549 0.172549
0.254902 0.254902 0.254902
0.329412 0.329412 0.329412
0.411765 0.411765 0.411765
0.498039 0.498039 0.498039
0.525490 0.525490 0.525490
0.556863 0.556863 0.556863
0.588235 0.588235 0.588235
0.619608 0.619608 0.619608
0.215686 0.215686 0.215686
0.294118 0.294118 0.294118
0.376471 0.376471 0.376471
0.458824 0.458824 0.458824
0.533333 0.533333 0.533333
0.541176 0.541176 0.541176
0.572549 0.572549 0.572549
0.603922 0.603922 0.603922
0.639216 0.639216 0.639216
0.258824 0.258824 0.258824
0.341176 0.341176 0.341176
0.423529 0.423529 0.423529
0.501961 0.501961 0.501961
0.580392 0.580392 0.580392
0.588235 0.588235 0.588235
0.592157 0.592157 0.592157
0.623529 0.623529 0.623529
0.654902 0.654902 0.654902
0.305882 0.305882 0.305882
0.388235 0.388235 0.388235
0.466667 0.466667 0.466667
0.545098 0.545098 0.545098
0.623529 0.623529 0.623529
0.631373 0.631373 0.631373
0.635294 0.635294 0.635294
0.639216 0.639216 0.639216
0.674510 0.674510 0.674510
0.352941 0.352941 0.352941
0.431373 0.431373 0.431373
0.509804 0.509804 0.509804
0.592157 0.592157 0.592157
0.670588 0.670588 0.670588
0.674510 0.674510 0.674510
0.678431 0.678431 0.678431
0.686275 0.686275 0.686275
0.690196 0.690196 0.690196
0.129412 0.129412 0.129412
0.137255 0.137255 0.137255
0.141176 0.141176 0.141176
0.149020 0.149020 0.149020
0.152941 0.152941 0.152941
0.156863 0.156863 0.156863
0.188235 0.188235 0.188235
0.223529 0.223529 0.223529
0.254902 0.254902 0.254902
0.149020 0.149020 0.149020
0.227451 0.227451 0.227451
0.231373 0.231373 0.231373
0.239216 0.239216 0.239216
0.243137 0.243137 0.243137
0.247059 0.247059 0.247059
0.282353 0.282353 0.282353
0.313725 0.313725 0.313725
0.345098 0.345098 0.345098
0.164706 0.164706 0.164706
0.243137 0.243137 0.243137
0.321569 0.321569 0.321569
0.329412 0.329412 0.329412
0.333333 0.333333 0.333333
0.337255 0.337255 0.337255
0.376471 0.376471 0.376471
0.407843 0.407843 0.407843
0.439216 0.439216 0.439216
0.184314 0.184314 0.184314
0.262745 0.262745 0.262745
0.341176 0.341176 0.341176
0.423529 0.423529 0.423529
0.431373 0.431373 0.431373
0.435294 0.435294 0.435294
0.466667 0.466667 0.466667
0.498039 0.498039 0.498039
0.533333 0.533333 0.533333
0.200000 0.200000 0.200000
0.278431 0.278431 0.278431
0.356863 0.356863 0.356863
0.443137 0.443137 0.443137
0.521569 0.521569 0.521569
0.525490 0.525490 0.525490
0.560784 0.560784 0.560784
0.588235 0.588235 0.588235
0.623529 0.623529 0.623529
0.219608 0.219608 0.219608
0.298039 0.298039 0.298039
0.380392 0.380392 0.380392
0.458824 0.458824 0.458824
0.537255 0.537255 0.537255
0.619608 0.619608 0.619608
0.647059 0.647059 0.647059
0.678431 0.678431 0.678431
0.713725 0.713725 0.713725
0.262745 0.262745 0.262745
0.341176 0.341176 0.341176
0.423529 0.423529 0.423529
0.501961 0.501961 0.501961
0.584314 0.584314 0.584314
0.658824 0.658824 0.658824
0.662745 0.662745 0.662745
0.694118 0.694118 0.694118
0.733333 0.733333 0.733333
0.305882 0.305882 0.305882
0.388235 0.388235 0.388235
0.470588 0.470588 0.470588
0.549020 0.549020 0.549020
0.627451 0.627451 0.627451
0.701961 0.701961 0.701961
0.709804 0.709804 0.709804
0.713725 0.713725 0.713725
0.752941 0.752941 0.752941
0.352941 0.352941 0.352941
0.435294 0.435294 0.435294
0.513725 0.513725 0.513725
0.592157 0.592157 0.592157
0.670588 0.670588 0.670588
0.752941 0.752941 0.752941
0.756863 0.756863 0.756863
0.764706 0.764706 0.764706
0.768627 0.768627 0.768627
0.156863 0.156863 0.156863
0.164706 0.164706 0.164706
0.168627 0.168627 0.168627
0.172549 0.172549 0.172549
0.180392 0.180392 0.180392
0.184314 0.184314 0.184314
0.188235 0.188235 0.188235
0.223529 0.223529 0.223529
0.258824 0.258824 0.258824
0.176471 0.176471 0.176471
0.254902 0.254902 0.254902
0.262745 0.262745 0.262745
0.266667 0.266667 0.266667
0.274510 0.274510 0.274510
0.278431 0.278431 0.278431
0.282353 0.282353 0.282353
0.313725 0.313725 0.313725
0.349020 0.349020 0.349020
0.192157 0.192157 0.192157
0.274510 0.274510 0.274510
0.352941 0.352941 0.352941
0.356863 0.356863 0.356863
0.368627 0.368627 0.368627
0.372549 0.372549 0.372549
0.376471 0.376471 0.376471
0.411765 0.411765 0.411765
0.443137 0.443137 0.443137
0.211765 0.211765 0.211765
0.290196 0.290196 0.290196
0.372549 0.372549 0.372549
0.450980 0.450980 0.450980
0.458824 0.458824 0.458824
0.462745 0.462745 0.462745
0.466667 0.466667 0.466667
0.501961 0.501961 0.501961
0.533333 0.533333 0.533333
0.227451 0.227451 0.227451
0.309804 0.309804 0.309804
0.392157 0.392157 0.392157
0.470588 0.470588 0.470588
0.549020 0.549020 0.549020
0.556863 0.556863 0.556863
0.560784 0.560784 0.560784
0.592157 0.592157 0.592157
0.623529 0.623529 0.623529
0.247059 0.247059 0.247059
0.325490 0.325490 0.325490
0.407843 0.407843 0.407843
0.486275 0.486275 0.486275
0.568627 0.568627 0.568627
0.643137 0.643137 0.643137
0.647059 0.647059 0.647059
0.682353 0.682353 0.682353
0.713725 0.713725 0.713725
0.262745 0.262745 0.262745
0.345098 0.345098 0.345098
0.427451 0.427451 0.427451
0.505882 0.505882 0.505882
0.584314 0.584314 0.584314
0.658824 0.658824 0.658824
0.749020 0.749020 0.749020
0.776471 0.776471 0.776471
0.807843 0.807843 0.807843
0.309804 0.309804 0.309804
0.392157 0.392157 0.392157
0.470588 0.470588 0.470588
0.549020 0.549020 0.549020
0.627451 0.627451 0.627451
0.705882 0.705882 0.705882
0.788235 0.788235 0.788235
0.792157 0.792157 0.792157
0.823529 0.823529 0.823529
0.356863 0.356863 0.356863
0.435294 0.435294 0.435294
0.513725 0.513725 0.513725
0.596078 0.596078 0.596078
0.674510 0.674510 0.674510
0.756863 0.756863 0.756863
0.831373 0.831373 0.831373
0.839216 0.839216 0.839216
0.843137 0.843137 0.843137
0.188235 0.188235 0.188235
0.192157 0.192157 0.192157
0.200000 0.200000 0.200000
0.203922 0.203922 0.203922
0.207843 0.207843 0.207843
0.215686 0.215686 0.215686
0.219608 0.219608 0.219608
0.223529 0.223529 0.223529
0.258824 0.258824 0.258824
0.207843 0.207843 0.207843
0.282353 0.282353 0.282353
0.290196 0.290196 0.290196
0.294118 0.294118 0.294118
0.298039 0.298039 0.298039
0.305882 0.305882 0.305882
0.309804 0.309804 0.309804
0.313725 0.313725 0.313725
0.349020 0.349020 0.349020
0.223529 0.223529 0.223529
0.301961 0.301961 0.301961
0.384314 0.384314 0.384314
0.392157 0.392157 0.392157
0.396078 0.396078 0.396078
0.403922 0.403922 0.403922
0.407843 0.407843 0.407843
0.411765 0.411765 0.411765
0.443137 0.443137 0.443137
0.243137 0.243137 0.243137
0.317647 0.317647 0.317647
0.403922 0.403922 0.403922
0.482353 0.482353 0.482353
0.486275 0.486275 0.486275
0.494118 0.494118 0.494118
0.498039 0.498039 0.498039
0.501961 0.501961 0.501961
0.537255 0.537255 0.537255
0.258824 0.258824 0.258824
0.337255 0.337255 0.337255
0.419608 0.419608 0.419608
0.498039 0.498039 0.498039
0.576471 0.576471 0.576471
0.580392 0.580392 0.580392
0.588235 0.588235 0.588235
0.592157 0.592157 0.592157
0.627451 0.627451 0.627451
0.274510 0.274510 0.274510
0.352941 0.352941 0.352941
0.439216 0.439216 0.439216
0.517647 0.517647 0.517647
0.592157 0.592157 0.592157
0.670588 0.670588 0.670588
0.678431 0.678431 0.678431
0.682353 0.682353 0.682353
0.717647 0.717647 0.717647
0.294118 0.294118 0.294118
0.376471 0.376471 0.376471
0.454902 0.454902 0.454902
0.533333 0.533333 0.533333
0.611765 0.611765 0.611765
0.690196 0.690196 0.690196
0.772549 0.772549 0.772549
0.776471 0.776471 0.776471
0.811765 0.811765 0.811765
0.309804 0.309804 0.309804
0.392157 0.392157 0.392157
0.474510 0.474510 0.474510
0.552941 0.552941 0.552941
0.631373 0.631373 0.631373
0.705882 0.705882 0.705882
0.788235 0.788235 0.788235
0.874510 0.874510 0.874510
0.901961 0.901961 0.901961
0.356863 0.356863 0.356863
0.439216 0.439216 0.439216
0.517647 0.517647 0.517647
0.596078 0.596078 0.596078
0.674510 0.674510 0.674510
0.756863 0.756863 0.756863
0.835294 0.835294 0.835294
0.913725 0.913725 0.913725
0.917647 0.917647 0.917647
0.219608 0.219608 0.219608
0.223529 0.223529 0.223529
0.227451 0.227451 0.227451
0.235294 0.235294 0.235294
0.239216 0.239216 0.239216
0.243137 0.243137 0.243137
0.250980 0.250980 0.250980
0.254902 0.254902 0.254902
0.258824 0.258824 0.258824
0.235294 0.235294 0.235294
0.313725 0.313725 0.313725
0.317647 0.317647 0.317647
0.325490 0.325490 0.325490
0.329412 0.329412 0.329412
0.333333 0.333333 0.333333
0.341176 0.341176 0.341176
0.345098 0.345098 0.345098
0.349020 0.349020 0.349020
0.254902 0.254902 0.254902
0.333333 0.333333 0.333333
0.411765 0.411765 0.411765
0.419608 0.419608 0.419608
0.423529 0.423529 0.423529
0.427451 0.427451 0.427451
0.435294 0.435294 0.435294
0.439216 0.439216 0.439216
0.443137 0.443137 0.443137
0.270588 0.270588 0.270588
0.349020 0.349020 0.349020
0.431373 0.431373 0.431373
0.509804 0.509804 0.509804
0.517647 0.517647 0.517647
0.521569 0.521569 0.521569
0.529412 0.529412 0.529412
0.533333 0.533333 0.533333
0.537255 0.537255 0.537255
0.290196 0.290196 0.290196
0.372549 0.372549 0.372549
0.447059 0.447059 0.447059
0.529412 0.529412 0.529412
0.607843 0.607843 0.607843
0.611765 0.611765 0.611765
0.619608 0.619608 0.619608
0.623529 0.623529 0.623529
0.627451 0.627451 0.627451
0.305882 0.305882 0.305882
0.388235 0.388235 0.388235
0.466667 0.466667 0.466667
0.545098 0.545098 0.545098
0.623529 0.623529 0.623529
0.701961 0.701961 0.701961
0.705882 0.705882 0.705882
0.713725 0.713725 0.713725
0.717647 0.717647 0.717647
0.325490 0.325490 0.325490
0.403922 0.403922 0.403922
0.482353 0.482353 0.482353
0.564706 0.564706 0.564706
0.643137 0.643137 0.643137
0.717647 0.717647 0.717647
0.800000 0.800000 0.800000
0.807843 0.807843 0.807843
0.811765 0.811765 0.811765
0.341176 0.341176 0.341176
0.423529 0.423529 0.423529
0.501961 0.501961 0.501961
0.580392 0.580392 0.580392
0.658824 0.658824 0.658824
0.741176 0.741176 0.741176
0.819608 0.819608 0.819608
0.898039 0.898039 0.898039
0.901961 0.901961 0.901961
0.364706 0.364706 0.364706
0.439216 0.439216 0.439216
0.517647 0.517647 0.517647
0.600000 0.600000 0.600000
0.678431 0.678431 0.678431
0.760784 0.760784 0.760784
0.835294 0.835294 0.835294
0.913725 0.913725 0.913725
1.000000 1.000000 1.000000
